rospo-icon-theme-classic-common/22x22/apps/postr.svg

<svg height="22" width="22" xmlns="http://www.w3.org/2000/svg"><path d="m2 1.5h18c .554 0 1 .446 1 1v15.745894l-1.267011 1.784843c-.320684.451749-.72588.78071-1.234631 1l-1.088691.469263h-15.409667c-.554 0-1-.446-1-1v-18c0-.554.446-1 1-1z" opacity=".2"/><path d="m2 1h18c .554 0 1 .446 1 1v15.495073l-.797748 2.223369c-.187097.521451-.612422.786475-1.140779.953074l-1.041764.328484h-16.019709c-.554 0-1-.446-1-1v-18c0-.554.446-1 1-1z" fill="#e4e4e4"/><path d="m2 1c-.554 0-1 .446-1 1v .5c0-.554.446-1 1-1h18c .554 0 1 .446 1 1v-.5c0-.554-.446-1-1-1z" fill="#fff" opacity=".2"/><circle cx="6.5" cy="11" fill="#2b8ede" r="4"/><circle cx="15.5" cy="11" fill="#d74c94" r="4"/><circle cx="17" cy="17" fill="#9a3cdb" r="5"/><path d="m17 14-2.5 3h1.5v3l2-.01446v-2.98555h1.5z" fill="#fff"/></svg>

<svg xmlns="http://www.w3.org/2000/svg" width="22" height="22" version="1">
 <path style="opacity:0.2" d="m 2,1.5 18,0 c 0.554,0 1,0.446 1,1 l 0,15.745894 -1.267011,1.784843 c -0.320684,0.451749 -0.72588,0.78071 -1.234631,1 L 17.409667,21.5 2,21.5 c -0.554,0 -1,-0.446 -1,-1 l 0,-18 c 0,-0.554 0.446,-1 1,-1 z"/>
 <path style="fill:#cccccc" d="m 2,1 18,0 c 0.554,0 1,0.446 1,1 l 0,15.495073 -0.797748,2.223369 c -0.187097,0.521451 -0.612422,0.786475 -1.140779,0.953074 L 18.019709,21 2,21 C 1.446,21 1,20.554 1,20 L 1,2 C 1,1.446 1.446,1 2,1 Z"/>
 <path style="opacity:0.2;fill:#ffffff" d="M 2,1 C 1.446,1 1,1.446 1,2 l 0,0.5 c 0,-0.554 0.446,-1 1,-1 l 18,0 c 0.554,0 1,0.446 1,1 L 21,2 C 21,1.446 20.554,1 20,1 L 2,1 Z"/>
 <circle style="fill:#2b8ede" cx="6.5" cy="11" r="4"/>
 <circle style="fill:#d74c94" cx="15.5" cy="11" r="4"/>
 <circle style="fill:#9a3cdb" cx="17" cy="17" r="5"/>
 <path style="fill:#ffffff" d="m 17,14 -2.5,3 1.5,0 0,3 2,-0.01446 0,-2.98555 1.5,0 z"/>
</svg>
